**kern	**kern	**dynam
*part1	*part1	*part1
*staff2	*staff1	*
*I"Piano	*	*
*clefF4	*clefG2	*
*k[]	*k[]	*
=1	=1	=1
8r	8r	.
(8eL	(8eeL	p
8c	8cc	.
8EJ	8eJ	.
=	=	=
(4A	(4a	.
[4G))	[4g))	.
=	=	=
8GL]	8gL]	.
(8c	(8cc	.
8A	8a	.
8CJ	8cJ	.
=	=	=
4D 4F	(4A [4B 4f	.
[4E)	[4G#X)) 4B_ [4e	.
=	=	=
8EL]	(((4G#] 4B] 4e]	.
(8F	.	.
8E	4Gn))) 4c#X 4a	.
8AAJ)	.	.
=	=	=
*^	*^	*
!	!	!LO:TX:a:i:t=ten.	!	!
2D	2DD	(4.dd~	[2cn 2f#X	.
.	.	8b	.	.
=	=	=	=	=
2F#X:	2DD	8aL	2c]	.
.	.	8f#X	.	.
.	.	8d	.	.
.	.	8bJ)	.	.
=	=	=	=	=
8GGL	8D	(4a	2B 2fn	.
*v	*v	*	*	*
8AA^	.	.	.
8DD^	4g)	.	.
8E^J	.	.	.
*	*v	*v	*
=	=	=
*^	*	*
*	*^	*	*
4rF	(4D^	4rFFFyy	8r	.
.	.	.	4B 4f 4g	.
8rF	8GGL)	4GG/	.	.
8G	8GJ	.	8B 8f 8g	.
*v	*v	*v	*	*
=	=	=
*-	*-	*-
!!!system-decoration: {(s1,s2)}
